X:55
T:Bottom of the punch bowl, The
S:Charlie Menzies
R:Reel
O:Scotland
M:4/4
K:D
FE | D2D2 d3e | d2D2 FGAF | \
E2e2 efgf | edcB AGFE | \
D2D2 d3e | fedc d3A |
Bc dB A3G | F2D2 D2 ::\
de|\
fedB ABde | fedc d3A |
B2e2 e2de | f2e2 e2de |\
fedB ABde | faef d2A2 | BcdB ABAG | F2D2 D2:|
